X: 38087
T: Splendid Isolation
R: reel
M: 4/4
K: Adorian
|:GAAG AedB|A2 BA GABd|eBdB ABcd|eaag a3b|
c'3b ae e2|g2 fa gedB|A2 BA GABd|eBdB A4:|
|:a2 ba ge e2|aged Bded|BA A2 Bded|BA A2 G4|
GAAG AedB|A2 BA GABd|ea a2 gaba|gedB A4:|

